X:1
T:089 - O Poder do Sangue
T:Letra: Lewis Edgar Jones (1865-1936)
T:Trad.: Salomão Luiz Ginsburg (1867-1927)
T:Música: Lewis Edgar Jones (1865-1936)
M:4/4
L:1/8
K:Bbmaj
V:1
"Bb"F2 FF F2 FF | "Eb"G2 GG "Bb"F3B | "F7"A>A c>c c4 | "Bb"B2 d>d d4 | F2 FF F2 FF | "Eb"G2 GG "Bb"F3B | "F7"A2 A>A c2 BA | "Bb"B6 FB | "Bb"d4d4 | "Eb"cB BG "Bb"F2 A>B | "F7"(c4c)>c B>c| "Bb"d6 FB | "Bb"d4d4 | "Eb"cB BG "Bb"F2 A>B | "F7"c3e d2 c>c | "Bb"B6 z2 |]
w: 1.~Do teu pe-ca-do te que-res li-vrar? Seu san-gue tem po-der, sim tem po-der. Al-me-jas tu do ma-lig-noes-ca-par? Seu san-gue tem es-te po-der. Há po-der, sim, for-ça sem i-gual, Só no san_gue de Je-sus; Há po-der, sim, pro-vao, pe-ca-dor, Oh, a-cei-tao dom de Je-sus!
w: 2.~Que-res com tu-a vai-da-dea-ca-bar? Seu san-gue há po-der, sim, tem po-der. Ví-cios, pai-xões, que-res tu do-mi-nar? Seu san-gue tem es-te po-der.  
w: 3.~Teu co-ra-ção que-res pu-ri-fi-car? Seu san-gue tem po-der, sim, tem po-der. To-das as man-chas te po-de ti-rar; Seu san-gue tem es-te po-der.  
w: 4.~Que-res en-trar no ser-vi-ço re-al? Seu san-gue tem po-der, sim, tem po-der. Que-res tam-bém ser um ser-vo le-al? Te-rás no seu san-gueo po-der.
W:
W:  
W: 1. Do teu pecado te queres livrar?
W: Seu sangue tem poder, sim tem poder.
W: Almejas tu do maligno escapar?
W: Seu sangue tem este poder.
W: 
W:    (Estribilho)
W:    Há poder, sim, força sem igual,
W:    Só no sangue de Jesus;                   
W:    Há poder, sim, prova-o, pecador,        
W:    Oh, aceita o dom de Jesus!
W: 
W: 
W: 
W: 2. Queres com tua vaidade acabar?
W: Seu sangue há poder, sim, tem poder.
W: Vícios, paixões, queres tu dominar?
W: Seu sangue tem este poder.
W:
W:  
W: 3. Teu coração queres purificar?
W: Seu sangue tem poder, sim, tem poder.
W: Todas as manchas te pode tirar;
W: Seu sangue tem este poder.
W: 
W: 4. Queres entrar no serviço real?
W: Seu sangue tem poder, sim, tem poder.
W: Queres tembém ser um servo leal?
W: Terás no seu sangue o poder.





